!!!OTL: Cha hua xie
!!!ARE: Asia, China,ÿShandong, Dezhou
!! III, 382
!!!SCT: C1574
!!!YEM: Copyright 1995, estate of Helmut Schaffrath.
**kern
*ICvox
*Ivox
*M2/4
*k[b-e-a-]
*E-:
{8gg
16ff
16gg
[4ff
=1
2ff]}
=2
{8ff
8b-
8cc
8cc
=3
8b-
8ee-
4cc
=4
8ff
8ff
16bb-
16gg
8bb-
=5
8.gg
16ff
4ff
=6
4ee-
8ee-
8cc
=7
2cc}
=8
{8.cc
16ee-
8cc
8ee-
=9
2ff
=10
8cc
8ff
8r
8gg
=11
4ff
8r}
{8ff
=12
4ee-
8gg
8bb-
=13
4.ff
8cc
=14
2ee-
=15
8dd
8ff
8dd
8cc
=16
4b-
4cc
=17
2b-
=18
4b-
4r}
=19
{8ff
8b-
8cc
8r}
=20
{8ff
8b-
8cc
8r}
=21
{8ff
8b-
8cc
8cc}
=22
{8ff
16b-
16b-
8cc
8cc}
=23
{8ff
8b-
8cc
8cc}
=24
{8ff
8b-
8cc
8cc}
=25
{8cc
16ee-
16ee-
8ff
8ff}
=26
{8gg
16ee-
16ee-
8ff
8ff}
=27
{8cc
16ee-
16ee-
8ff
8ff}
=28
{8gg
8ee-
8ff
8ff}
=29
{4r
8ff
8ff
=30
4ee-
8gg
8bb-
=31
4ff
8ff
8cc
=32
2ee-
=33
8dd
8ff
8dd
8cc
=34
4b-
4cc
=35
2b-
=36
4b-
4r}
==
!!!AGN: Haozi, Yunhe haozi
!!!AMT: simple duple
!!!AIN: vox
!!!EED: Helmut Schaffrath
!!!EEV: 1.0
*-
!!!ONB: Tied note syntax fixed by Craig Sapp, 2004/05/03/
